images/close.svg

<svg fill="none" height="20" viewBox="0 0 20 20" width="20" xmlns="http://www.w3.org/2000/svg"><path d="m12.59 6-2.59 2.59-2.59-2.59-1.41 1.41 2.59 2.59-2.59 2.59 1.41 1.41 2.59-2.59 2.59 2.59 1.41-1.41-2.59-2.59 2.59-2.59zm-2.59-6c-5.53 0-10 4.47-10 10s4.47 10 10 10 10-4.47 10-10-4.47-10-10-10zm0 18c-4.41 0-8-3.59-8-8s3.59-8 8-8 8 3.59 8 8-3.59 8-8 8z" fill="#fff"/></svg>

<svg width="20" height="20" viewBox="0 0 20 20" fill="none" xmlns="http://www.w3.org/2000/svg">
<path d="M12.59 6L10 8.59L7.41 6L6 7.41L8.59 10L6 12.59L7.41 14L10 11.41L12.59 14L14 12.59L11.41 10L14 7.41L12.59 6ZM10 0C4.47 0 0 4.47 0 10C0 15.53 4.47 20 10 20C15.53 20 20 15.53 20 10C20 4.47 15.53 0 10 0ZM10 18C5.59 18 2 14.41 2 10C2 5.59 5.59 2 10 2C14.41 2 18 5.59 18 10C18 14.41 14.41 18 10 18Z" fill="white"/>
</svg>
